X:805
T: Lady Doll Sinclair
S: B.Breathnach: "Ceol Rince na hEireann" II/237
Z: B.Black
L: 1/8
M: 4/4
R: reel
K: Ador
E|A2 eA cAeA|Bggd BGGB|(3AAA eA cA (3eeA|dBGB A3E|
A2 (3eeA cAeA|Bggd BGGB|A2 eA cAeA|(3ddB GB A3 ||
e|ae (3eee aeef|gB (3BAB gggb|ae (3eee aeed|(3BBB GB A2 Ae|
ae (3eee aeef|gB (3BAB gggb|(3aaf ge fded|(3BBB GB A3 ||

